images/brands/sindri.svg

<svg fill="none" height="180" viewBox="0 0 462 180" width="462" xmlns="http://www.w3.org/2000/svg" xmlns:xlink="http://www.w3.org/1999/xlink"><clipPath id="a"><path d="m50 50h363v86h-363z"/></clipPath><g clip-path="url(#a)" clip-rule="evenodd" fill="#000" fill-rule="evenodd"><path d="m67.1733 57.8296c0-4.3242 3.4999-7.8296 7.8175-7.8296h53.0582c4.317 0 7.817 3.5054 7.817 7.8296v1.5408c0 4.3242-3.5 7.8296-7.817 7.8296h-53.0582c-4.3176 0-7.8175-3.5054-7.8175-7.8296zm6.4286 26.5704h54.4471c4.317 0 7.817 3.5054 7.817 7.8297v1.5406c0 4.3243-3.5 7.8297-7.817 7.8297h-53.0582c-4.3176 0-7.8175-3.5054-7.8175-7.8297v-3.0558c-.001.045-.0014.0901-.0014.1355 0-3.5613-2.8824-6.4485-6.4386-6.45h-2.1467c-4.7422 0-8.5866-3.8504-8.5866-8.6 0-4.7497 3.8444-8.6 8.5866-8.6 4.7423 0 8.5867 3.8503 8.5867 8.6v2.2857c.0721 3.4959 2.9216 6.3083 6.4286 6.3143zm70.8511 17.2c-4.742 0-8.587 3.85-8.587 8.6v2.286c-.001-.045-.001-.091-.001-.136 0 3.561-2.882 6.448-6.437 6.45h-.002-63.0219c-4.3175 0-7.8175 3.505-7.8175 7.83v1.54c0 4.325 3.5 7.83 7.8174 7.83h61.645c4.317 0 7.817-3.505 7.817-7.83v-3.056c.072-3.499 2.928-6.314 6.44-6.314h2.147c4.742 0 8.587-3.85 8.587-8.6s-3.845-8.6-8.587-8.6z"/><path d="m315.164 119.454c-2.449-1.47-4.401-3.427-5.869-5.882-1.466-2.455-2.187-5.146-2.187-8.075v-13.4587c0-2.9286.734-5.6328 2.187-8.1253 1.468-2.4798 3.42-4.4363 5.869-5.882 2.449-1.433 5.135-2.1558 8.056-2.1558h5.992c.584 0 1.157.1744 1.64.4984l6.689 4.5238v-22.3567c0-.324.262-.5857.584-.5857h7.771c.322 0 .584.2617.584.5857v62.5213c0 .324-.262.586-.584.586h-7.771c-.322 0-.584-.262-.584-.586v-4.436l-6.689 4.523c-.483.324-1.056.499-1.64.499h-5.992c-2.921 0-5.607-.735-8.056-2.194zm2.997-8.885c1.404 1.408 3.082 2.106 5.059 2.106h3.22c.584 0 1.155-.174 1.641-.498l9.46-6.406v-13.9944l-9.46-6.4055c-.486-.324-1.057-.4984-1.641-.4984h-3.196c-1.728 0-3.417.5982-4.699 1.7446-1.653 1.4706-2.486 3.2899-2.486 5.4334v13.4593c0 1.968.696 3.663 2.102 5.072zm-126.878 4.611c1.317 2.044 3.12 3.626 5.42 4.761l-.013-.025c2.3 1.133 4.886 1.707 7.745 1.707h8.143c4.537 0 8.205-1.172 11.014-3.502 2.797-2.33 4.202-5.384 4.202-9.147 0-3.477-.945-6.256-2.859-8.35-1.915-2.0932-4.152-3.6384-6.713-4.6229-2.573-.9844-5.818-1.9565-9.759-2.916-3.344-.7727-5.781-1.508-7.297-2.1932-1.529-.6854-2.288-1.6575-2.288-2.9163 0-1.1962.448-2.1184 1.343-2.7789.895-.6604 2.238-.9844 4.028-.9844h7.695c1.554 0 2.834.4734 3.854 1.4329 1.094.9721 1.516 2.3304 1.541 3.7636 0 .3614.311.6356.659.6356h7.621c.36 0 .671-.2991.671-.6605.037-4.91-2.66-9.5084-7.086-11.7764-2.2-1.1591-4.625-1.7448-7.248-1.7448h-7.695c-4.239 0-7.695 1.0968-10.343 3.3149-2.648 2.2182-3.978 5.1467-3.978 8.798 0 3.0532.82 5.4958 2.461 7.3152 1.641 1.8195 3.605 3.1654 5.905 4.0377 2.3.8595 5.296 1.7195 9.001 2.5545 2.685.661 4.774 1.234 6.266 1.707 1.479.474 2.734 1.147 3.754 2.019 1.007.873 1.516 2.044 1.516 3.365s-.546 2.368-1.615 3.14c-1.07.785-2.624 1.172-4.65 1.172h-8.143c-1.877 0-3.331-.411-4.463-1.334-1.131-.922-1.715-2.38-1.715-3.85v-.948c0-.324-.261-.585-.584-.585h-7.77c-.324 0-.585.261-.585.585v1.209c0 2.505.647 4.786 1.965 6.817zm92.379-30.3195c1.977 0 3.656.6979 5.06 2.1061v.025c1.406 1.4082 2.101 3.1031 2.101 5.072v29.0234c0 .324.262.586.584.586h7.771c.322 0 .584-.262.584-.586v-29.0234c0-2.9285-.721-5.6452-2.188-8.1253-1.468-2.4922-3.419-4.4487-5.869-5.8819-2.447-1.4332-5.132-2.1558-8.054-2.1558h-6.03c-.56 0-1.105.1868-1.554.5108l-6.725 4.8726v-4.7978c0-.324-.262-.5856-.584-.5856h-7.77c-.324 0-.585.2616-.585.5856v44.5638c0 .324.261.586.585.586h7.77c.322 0 .584-.262.584-.586v-29.5598l9.548-6.2059c.423-.2742.931-.4238 1.44-.4238zm80.197-8.973h-7.769v.0124c-.324 0-.586.2617-.586.5857v44.5764c0 .324.262.586.586.586h7.769c.324 0 .584-.262.584-.586v-28.2138l11.512-7.714c.385-.2617.846-.2617 1.069-.2617 1.741 0 3.407.7104 4.538 2.0812 1.132 1.3709 1.69 3.078 1.69 5.0968v3.589h8.951v-3.589c0-2.9285-.672-5.6452-2.013-8.1251-1.344-2.4924-3.184-4.4489-5.509-5.8819-2.324-1.4332-4.836-2.156-7.519-2.156h-1.554c-.685 0-1.357.1995-1.915.5856l-9.25 6.3182v-6.3182c0-.324-.26-.5856-.584-.5856zm-124.379 36.7875c.195 0 .154-.096.091-.243-.041-.096-.091-.214-.091-.343v-26.6306c0-.324-.261-.5859-.585-.5859h-4.885c-.324 0-.585-.2616-.585-.5856v-7.7886c0-.324.261-.5859.585-.5859h13.836c.323 0 .584.2619.584.5859v35.6037c0 .128-.05.246-.091.343-.063.147-.104.243.091.243.196 0 .155.095.092.242-.041.097-.092.215-.092.343v7.789c0 .128.051.247.092.343.063.147.104.243-.092.243h-8.95c-.196 0-.155-.096-.092-.243.041-.096.092-.215.092-.343v-7.789c0-.128-.051-.246-.092-.343-.063-.147-.104-.242.092-.242zm9.07-47.2757c0 2.9147-2.355 5.2733-5.265 5.2733s-5.265-2.3586-5.265-5.2733 2.355-5.2733 5.265-5.2733 5.265 2.3586 5.265 5.2733zm155.355 47.2757c.195 0 .154-.096.092-.243-.041-.096-.092-.214-.092-.343v-26.6306c0-.324-.26-.5859-.584-.5859h-4.886c-.322 0-.584-.2616-.584-.5856v-7.7886c0-.324.262-.5859.584-.5859h13.837c.322 0 .584.2619.584.5859v35.6037c0 .128-.051.246-.092.343-.062.147-.103.243.092.243.196 0 .155.095.093.242-.043.097-.093.215-.093.343v7.789c0 .128.05.247.093.343.062.147.103.243-.093.243h-8.951c-.196 0-.155-.096-.09-.243.04-.096.09-.215.09-.343v-7.789c0-.128-.05-.246-.09-.343-.065-.147-.106-.242.09-.242zm9.024-47.2757c0 2.9147-2.355 5.2733-5.265 5.2733-2.911 0-5.266-2.3586-5.266-5.2733s2.355-5.2733 5.266-5.2733c2.91 0 5.265 2.3586 5.265 5.2733z"/></g></svg>

<svg width="462" height="180" viewBox="0 0 462 180" fill="none" xmlns="http://www.w3.org/2000/svg">
<g clip-path="url(#clip0_332_747)">
<path fill-rule="evenodd" clip-rule="evenodd" d="M67.1733 57.8296C67.1733 53.5054 70.6732 50 74.9908 50H128.049C132.366 50 135.866 53.5054 135.866 57.8296V59.3704C135.866 63.6946 132.366 67.2 128.049 67.2H74.9908C70.6732 67.2 67.1733 63.6946 67.1733 59.3704V57.8296ZM73.6019 84.4H128.049C132.366 84.4 135.866 87.9054 135.866 92.2297V93.7703C135.866 98.0946 132.366 101.6 128.049 101.6H74.9908C70.6732 101.6 67.1733 98.0946 67.1733 93.7703V90.7145C67.1723 90.7595 67.1719 90.8046 67.1719 90.85C67.1719 87.2887 64.2895 84.4015 60.7333 84.4H58.5866C53.8444 84.4 50 80.5496 50 75.8C50 71.0503 53.8444 67.2 58.5866 67.2C63.3289 67.2 67.1733 71.0503 67.1733 75.8V78.0857C67.2454 81.5816 70.0949 84.394 73.6019 84.4ZM144.453 101.6C139.711 101.6 135.866 105.45 135.866 110.2V112.486C135.865 112.441 135.865 112.395 135.865 112.35C135.865 115.911 132.983 118.798 129.428 118.8H129.426H66.4041C62.0866 118.8 58.5866 122.305 58.5866 126.63V128.17C58.5866 132.495 62.0866 136 66.404 136H128.049C132.366 136 135.866 132.495 135.866 128.17V125.114C135.938 121.615 138.794 118.8 142.306 118.8H144.453C149.195 118.8 153.04 114.95 153.04 110.2C153.04 105.45 149.195 101.6 144.453 101.6Z" fill="black"/>
<path fill-rule="evenodd" clip-rule="evenodd" d="M315.164 119.454C312.715 117.984 310.763 116.027 309.295 113.572C307.829 111.117 307.108 108.426 307.108 105.497V92.0383C307.108 89.1097 307.842 86.4055 309.295 83.913C310.763 81.4332 312.715 79.4767 315.164 78.031C317.613 76.598 320.299 75.8752 323.22 75.8752H329.212C329.796 75.8752 330.369 76.0496 330.852 76.3736L337.541 80.8974V58.5407C337.541 58.2167 337.803 57.955 338.125 57.955H345.896C346.218 57.955 346.48 58.2167 346.48 58.5407V121.062C346.48 121.386 346.218 121.648 345.896 121.648H338.125C337.803 121.648 337.541 121.386 337.541 121.062V116.626L330.852 121.149C330.369 121.473 329.796 121.648 329.212 121.648H323.22C320.299 121.648 317.613 120.913 315.164 119.454ZM318.161 110.569C319.565 111.977 321.243 112.675 323.22 112.675H326.44C327.024 112.675 327.595 112.501 328.081 112.177L337.541 105.771V91.7766L328.081 85.3711C327.595 85.0471 327.024 84.8727 326.44 84.8727H323.244C321.516 84.8727 319.827 85.4709 318.545 86.6173C316.892 88.0879 316.059 89.9072 316.059 92.0507V105.51C316.059 107.478 316.755 109.173 318.161 110.582V110.569ZM191.283 115.18C192.6 117.224 194.403 118.806 196.703 119.941L196.69 119.916C198.99 121.049 201.576 121.623 204.435 121.623H212.578C217.115 121.623 220.783 120.451 223.592 118.121C226.389 115.791 227.794 112.737 227.794 108.974C227.794 105.497 226.849 102.718 224.935 100.624C223.02 98.5308 220.783 96.9856 218.222 96.0011C215.649 95.0167 212.404 94.0446 208.463 93.0851C205.119 92.3124 202.682 91.5771 201.166 90.8919C199.637 90.2065 198.878 89.2344 198.878 87.9756C198.878 86.7794 199.326 85.8572 200.221 85.1967C201.116 84.5363 202.459 84.2123 204.249 84.2123H211.944C213.498 84.2123 214.778 84.6857 215.798 85.6452C216.892 86.6173 217.314 87.9756 217.339 89.4088C217.339 89.7702 217.65 90.0444 217.998 90.0444H225.619C225.979 90.0444 226.29 89.7453 226.29 89.3839C226.327 84.4739 223.63 79.8755 219.204 77.6075C217.004 76.4484 214.579 75.8627 211.956 75.8627H204.261C200.022 75.8627 196.566 76.9595 193.918 79.1776C191.27 81.3958 189.94 84.3243 189.94 87.9756C189.94 91.0288 190.76 93.4714 192.401 95.2908C194.042 97.1103 196.006 98.4562 198.306 99.3285C200.606 100.188 203.602 101.048 207.307 101.883C209.992 102.544 212.081 103.117 213.573 103.59C215.052 104.064 216.307 104.737 217.327 105.609C218.334 106.482 218.843 107.653 218.843 108.974C218.843 110.295 218.297 111.342 217.228 112.114C216.158 112.899 214.604 113.286 212.578 113.286H204.435C202.558 113.286 201.104 112.875 199.972 111.952C198.841 111.03 198.257 109.572 198.257 108.102V107.154C198.257 106.83 197.996 106.569 197.673 106.569H189.903C189.579 106.569 189.318 106.83 189.318 107.154V108.363C189.318 110.868 189.965 113.149 191.283 115.18ZM283.662 84.8605C285.639 84.8605 287.318 85.5584 288.722 86.9666V86.9916C290.128 88.3998 290.823 90.0947 290.823 92.0636V121.087C290.823 121.411 291.085 121.673 291.407 121.673H299.178C299.5 121.673 299.762 121.411 299.762 121.087V92.0636C299.762 89.1351 299.041 86.4184 297.574 83.9383C296.106 81.4461 294.155 79.4896 291.705 78.0564C289.258 76.6232 286.573 75.9006 283.651 75.9006H277.621C277.061 75.9006 276.516 76.0874 276.067 76.4114L269.342 81.284V76.4862C269.342 76.1622 269.08 75.9006 268.758 75.9006H260.988C260.664 75.9006 260.403 76.1622 260.403 76.4862V121.05C260.403 121.374 260.664 121.636 260.988 121.636H268.758C269.08 121.636 269.342 121.374 269.342 121.05V91.4902L278.89 85.2843C279.313 85.0101 279.821 84.8605 280.33 84.8605H283.662ZM363.859 75.8875H356.09V75.8999C355.766 75.8999 355.504 76.1616 355.504 76.4856V121.062C355.504 121.386 355.766 121.648 356.09 121.648H363.859C364.183 121.648 364.443 121.386 364.443 121.062V92.8482L375.955 85.1342C376.34 84.8725 376.801 84.8725 377.024 84.8725C378.765 84.8725 380.431 85.5829 381.562 86.9537C382.694 88.3246 383.252 90.0317 383.252 92.0505V95.6395H392.203V92.0505C392.203 89.122 391.531 86.4053 390.19 83.9254C388.846 81.433 387.006 79.4765 384.681 78.0435C382.357 76.6103 379.845 75.8875 377.162 75.8875H375.608C374.923 75.8875 374.251 76.087 373.693 76.4731L364.443 82.7913V76.4731C364.443 76.1491 364.183 75.8875 363.859 75.8875ZM239.48 112.675C239.675 112.675 239.634 112.579 239.571 112.432C239.53 112.336 239.48 112.218 239.48 112.089V85.4584C239.48 85.1344 239.219 84.8725 238.895 84.8725H234.01C233.686 84.8725 233.425 84.6109 233.425 84.2869V76.4983C233.425 76.1743 233.686 75.9124 234.01 75.9124H247.846C248.169 75.9124 248.43 76.1743 248.43 76.4983V112.102C248.43 112.23 248.38 112.348 248.339 112.445C248.276 112.592 248.235 112.688 248.43 112.688C248.626 112.688 248.585 112.783 248.522 112.93C248.481 113.027 248.43 113.145 248.43 113.273V121.062C248.43 121.19 248.481 121.309 248.522 121.405C248.585 121.552 248.626 121.648 248.43 121.648H239.48C239.284 121.648 239.325 121.552 239.388 121.405C239.429 121.309 239.48 121.19 239.48 121.062V113.273C239.48 113.145 239.429 113.027 239.388 112.93C239.325 112.783 239.284 112.688 239.48 112.688V112.675ZM248.55 65.3993C248.55 68.314 246.195 70.6726 243.285 70.6726C240.375 70.6726 238.02 68.314 238.02 65.3993C238.02 62.4846 240.375 60.126 243.285 60.126C246.195 60.126 248.55 62.4846 248.55 65.3993ZM403.905 112.675C404.1 112.675 404.059 112.579 403.997 112.432C403.956 112.336 403.905 112.218 403.905 112.089V85.4584C403.905 85.1344 403.645 84.8725 403.321 84.8725H398.435C398.113 84.8725 397.851 84.6109 397.851 84.2869V76.4983C397.851 76.1743 398.113 75.9124 398.435 75.9124H412.272C412.594 75.9124 412.856 76.1743 412.856 76.4983V112.102C412.856 112.23 412.805 112.348 412.764 112.445C412.702 112.592 412.661 112.688 412.856 112.688C413.052 112.688 413.011 112.783 412.949 112.93C412.906 113.027 412.856 113.145 412.856 113.273V121.062C412.856 121.19 412.906 121.309 412.949 121.405C413.011 121.552 413.052 121.648 412.856 121.648H403.905C403.709 121.648 403.75 121.552 403.815 121.405C403.855 121.309 403.905 121.19 403.905 121.062V113.273C403.905 113.145 403.855 113.027 403.815 112.93C403.75 112.783 403.709 112.688 403.905 112.688V112.675ZM412.929 65.3993C412.929 68.314 410.574 70.6726 407.664 70.6726C404.753 70.6726 402.398 68.314 402.398 65.3993C402.398 62.4846 404.753 60.126 407.664 60.126C410.574 60.126 412.929 62.4846 412.929 65.3993Z" fill="black"/>
</g>
<defs>
<clipPath id="clip0_332_747">
<rect width="363" height="86" fill="white" transform="translate(50 50)"/>
</clipPath>
</defs>
</svg>
